X:5001
T:Earl Grey
T:Chicken Pecking
R:Reel
C:Trad.
S:Pete Coe
O:England, Northumberland
Z:Paul Hardy's Session Tunebook 2015 (see www.paulhardy.net). Creative Commons cc by-nc-sa licenced.
M:4/4
L:1/4
Q:1/4=160
K:G
B/A/|"G"G>AGD|"Em"EGDB|"C"cAc/B/A/G/|"D"FAAB/A/|"G"G>AGD|"Em"EGDB|"C"cede/f/|"G"gGG:|
|:(3d/e/f/|"C"gGfG|eGdG|cA c/B/A/G/|"D"FAA(3d/e/f/|"C"gGfG|eGdG|ce "D"de/f/|"G"gGG:|

